_assets/img/icons/ic_more_vert_36px.svg

<svg xmlns="http://www.w3.org/2000/svg" width="36" height="36" viewBox="0 0 36 36">
    <path d="M0 0h36v36h-36z" fill="none"/>
    <path d="M18 12c1.66 0 3-1.34 3-3s-1.34-3-3-3-3 1.34-3 3 1.34 3 3 3zm0 3c-1.66 0-3 1.34-3 3s1.34 3 3 3 3-1.34 3-3-1.34-3-3-3zm0 9c-1.66 0-3 1.34-3 3s1.34 3 3 3 3-1.34 3-3-1.34-3-3-3z"/>
</svg>

<?xml version="1.0" encoding="UTF-8" standalone="no"?>
<svg width="6px" height="24px" viewBox="0 0 6 24" version="1.1" xmlns="http://www.w3.org/2000/svg" xmlns:xlink="http://www.w3.org/1999/xlink" xmlns:sketch="http://www.bohemiancoding.com/sketch/ns">
    <!-- Generator: Sketch 3.2.2 (9983) - http://www.bohemiancoding.com/sketch -->
    <title>ic_more_vert_36px</title>
    <desc>Created with Sketch.</desc>
    <defs></defs>
    <g id="Page-1" stroke="none" stroke-width="1" fill="none" fill-rule="evenodd" sketch:type="MSPage">
        <g id="ic_more_vert_36px" sketch:type="MSLayerGroup" transform="translate(-15.000000, -6.000000)">
            <path d="M0,0 L36,0 L36,36 L0,36 L0,0 Z" id="Shape" sketch:type="MSShapeGroup"></path>
            <path d="M18,12 C19.66,12 21,10.66 21,9 C21,7.34 19.66,6 18,6 C16.34,6 15,7.34 15,9 C15,10.66 16.34,12 18,12 L18,12 Z M18,15 C16.34,15 15,16.34 15,18 C15,19.66 16.34,21 18,21 C19.66,21 21,19.66 21,18 C21,16.34 19.66,15 18,15 L18,15 Z M18,24 C16.34,24 15,25.34 15,27 C15,28.66 16.34,30 18,30 C19.66,30 21,28.66 21,27 C21,25.34 19.66,24 18,24 L18,24 Z" id="Shape" fill="#FFFFFF" sketch:type="MSShapeGroup"></path>
        </g>
    </g>
</svg>
